X: 11573
Q: "Moderate."
M: C
L: 1/8
K: F
|:\
d3f c2(AB) | (cd/e/) (fe/d/) {d}c3B |\
c2f2 c2(A>B) | c2(f>g) a2F2 |\
|:\
(fg)(ag) (fg)(ag) | (fagf) (e>fg)c |\
g3f (fe)(ed) | (dc) (cd/e/) f2 zf |\
(fa)(gf) f3f | (fa)(gf) (f>g)(aF) |\


